_includes/icons/ios-internet.svg

<svg fill="#666" height="50" viewBox="0 0 50 50" width="50" xmlns="http://www.w3.org/2000/svg"><path d="m24 2c-12.136719 0-22 9.863281-22 22s9.863281 22 22 22c2.058594 0 4.070313-.296875 6-.84375v-3.859375c-1.496094 1.445313-3.191406 2.371094-5 2.625v-7.921875h5v-2h-5v-9h5v-2h-5v-9h9.371094c.894531 2.582031 1.460937 5.519531 1.585937 8.660156l1.042969.980469.988281.921875.464844.4375h5.511719c-.078125 1.527344-.320313 3.027344-.734375 4.480469l1.617187 1.515625c.753907-2.238281 1.152344-4.589844 1.152344-6.996094 0-12.136719-9.863281-22-22-22zm-1 2.082031v7.917969h-8.558594c.375-.824219.773438-1.609375 1.214844-2.320312 1.996094-3.222657 4.570313-5.207032 7.34375-5.597657zm2 0c3.503906.484375 6.578125 3.484375 8.578125 7.917969h-8.578125zm6.5 1.371094c3.398438 1.375 6.320313 3.660156 8.488281 6.546875h-4.269531c-1.09375-2.628906-2.535156-4.859375-4.21875-6.546875zm-15.074219.039063c-.902343.910156-1.738281 1.953125-2.46875 3.132812-.640625 1.035156-1.210937 2.167969-1.707031 3.375h-4.230469c2.152344-2.863281 5.042969-5.132812 8.40625-6.507812zm-9.734375 8.507812h4.828125c-.878906 2.726563-1.398437 5.773438-1.488281 9h-6.007812c.164062-3.273437 1.121093-6.328125 2.667968-9zm6.945313 0h9.363281v9h-10.96875c.097656-3.273437.667969-6.335937 1.605469-9zm22.816406 0h4.871094c1.542969 2.671875 2.488281 5.730469 2.648437 9h-6.003906c-.09375-3.230469-.625-6.277344-1.515625-9zm-32.429687 11h6.007812c.089844 3.226563.609375 6.273438 1.488281 9h-4.828125c-1.546875-2.671875-2.503906-5.726562-2.667968-9zm8.007812 0h10.96875v9h-9.363281c-.9375-2.664062-1.507813-5.726562-1.605469-9zm21.921875 0c-.53125.027344-.953125.464844-.953125 1v19.25c0 .40625.242188.769531.617188.921875.375.15625.804687.070313 1.089843-.214844l3.011719-3.015625 2.511719 5.476563c.230469.5.824219.71875 1.328125.488281l3.859375-1.765625c.5-.230469.71875-.824219.488281-1.328125l-2.605469-5.6875h4.699219c.410156 0 .78125-.25.929688-.632812.152343-.382813.054687-.816407-.246094-1.097657l-14-13.125c-.199219-.183593-.460938-.28125-.730469-.269531zm1.046875 3.308594 10.46875 9.816406h-3.59375c-.15625 0-.308594.035156-.449219.105469l-.105468.054687c-.480469.242188-.6875.820313-.460938 1.308594l2.8125 6.140625-2.042969.9375-2.691406-5.871094c-.132812-.296875-.410156-.507812-.730469-.566406-.324218-.058594-.652343.046875-.882812.28125l-2.324219 2.320313zm-26.980469 7.691406h4.230469c.496094 1.207031 1.066406 2.339844 1.707031 3.375.730469 1.179688 1.566407 2.222656 2.46875 3.132813-3.363281-1.375-6.253906-3.644532-8.40625-6.507813zm6.421875 0h8.558594v7.917969c-2.773437-.390625-5.347656-2.375-7.34375-5.59375-.441406-.714844-.839844-1.5-1.214844-2.324219z"/></svg>

<svg xmlns="http://www.w3.org/2000/svg" viewBox="0 0 50 50" width="50" height="50" fill="#666"><path d="M 24 2 C 11.863281 2 2 11.863281 2 24 C 2 36.136719 11.863281 46 24 46 C 26.058594 46 28.070313 45.703125 30 45.15625 L 30 41.296875 C 28.503906 42.742188 26.808594 43.667969 25 43.921875 L 25 36 L 30 36 L 30 34 L 25 34 L 25 25 L 30 25 L 30 23 L 25 23 L 25 14 L 34.371094 14 C 35.265625 16.582031 35.832031 19.519531 35.957031 22.660156 L 37 23.640625 L 37.988281 24.5625 L 38.453125 25 L 43.964844 25 C 43.886719 26.527344 43.644531 28.027344 43.230469 29.480469 L 44.847656 30.996094 C 45.601563 28.757813 46 26.40625 46 24 C 46 11.863281 36.136719 2 24 2 Z M 23 4.082031 L 23 12 L 14.441406 12 C 14.816406 11.175781 15.214844 10.390625 15.65625 9.679688 C 17.652344 6.457031 20.226563 4.472656 23 4.082031 Z M 25 4.082031 C 28.503906 4.566406 31.578125 7.566406 33.578125 12 L 25 12 Z M 31.5 5.453125 C 34.898438 6.828125 37.820313 9.113281 39.988281 12 L 35.71875 12 C 34.625 9.371094 33.183594 7.140625 31.5 5.453125 Z M 16.425781 5.492188 C 15.523438 6.402344 14.6875 7.445313 13.957031 8.625 C 13.316406 9.660156 12.746094 10.792969 12.25 12 L 8.019531 12 C 10.171875 9.136719 13.0625 6.867188 16.425781 5.492188 Z M 6.691406 14 L 11.519531 14 C 10.640625 16.726563 10.121094 19.773438 10.03125 23 L 4.023438 23 C 4.1875 19.726563 5.144531 16.671875 6.691406 14 Z M 13.636719 14 L 23 14 L 23 23 L 12.03125 23 C 12.128906 19.726563 12.699219 16.664063 13.636719 14 Z M 36.453125 14 L 41.324219 14 C 42.867188 16.671875 43.8125 19.730469 43.972656 23 L 37.96875 23 C 37.875 19.769531 37.34375 16.722656 36.453125 14 Z M 4.023438 25 L 10.03125 25 C 10.121094 28.226563 10.640625 31.273438 11.519531 34 L 6.691406 34 C 5.144531 31.328125 4.1875 28.273438 4.023438 25 Z M 12.03125 25 L 23 25 L 23 34 L 13.636719 34 C 12.699219 31.335938 12.128906 28.273438 12.03125 25 Z M 33.953125 25 C 33.421875 25.027344 33 25.464844 33 26 L 33 45.25 C 33 45.65625 33.242188 46.019531 33.617188 46.171875 C 33.992188 46.328125 34.421875 46.242188 34.707031 45.957031 L 37.71875 42.941406 L 40.230469 48.417969 C 40.460938 48.917969 41.054688 49.136719 41.558594 48.90625 L 45.417969 47.140625 C 45.917969 46.910156 46.136719 46.316406 45.90625 45.8125 L 43.300781 40.125 L 48 40.125 C 48.410156 40.125 48.78125 39.875 48.929688 39.492188 C 49.082031 39.109375 48.984375 38.675781 48.683594 38.394531 L 34.683594 25.269531 C 34.484375 25.085938 34.222656 24.988281 33.953125 25 Z M 35 28.308594 L 45.46875 38.125 L 41.875 38.125 C 41.71875 38.125 41.566406 38.160156 41.425781 38.230469 L 41.320313 38.285156 C 40.839844 38.527344 40.632813 39.105469 40.859375 39.59375 L 43.671875 45.734375 L 41.628906 46.671875 L 38.9375 40.800781 C 38.804688 40.503906 38.527344 40.292969 38.207031 40.234375 C 37.882813 40.175781 37.554688 40.28125 37.324219 40.515625 L 35 42.835938 Z M 8.019531 36 L 12.25 36 C 12.746094 37.207031 13.316406 38.339844 13.957031 39.375 C 14.6875 40.554688 15.523438 41.597656 16.425781 42.507813 C 13.0625 41.132813 10.171875 38.863281 8.019531 36 Z M 14.441406 36 L 23 36 L 23 43.917969 C 20.226563 43.527344 17.652344 41.542969 15.65625 38.324219 C 15.214844 37.609375 14.816406 36.824219 14.441406 36 Z"/></svg>
